X: 30826
T: Our Highland Queen
R: strathspey
M: 4/4
K: Dmajor
D>AF>A D>AF>A|(3[DAf]ed (3cdB A3 F/D/|C>A G>A F>A D>A|(3FED (3CDB, A,2 A, (3A,/B,/C/|
D>AF>A D>AF>A|(3[DAf]ed (3cdB A3 G/F/|(3GBe E>G (3FAd [DA]>[GA,]|(3F>GD (3C<FE D2 D2|
d>f (3Adf (3afd (3AFD|(3A,DF (3AFd A2 A(3B/^c/^d/|e>g (3Beg (3bge (3BGE|(3CEG (3CEA [F2D2] [DF] (3A/B/c/|
d>f (3Adf (3afd (3AFD|(3A,DF (3AFd A2 A G/F/|(3GBe E>G (3FAd [DA]>[GA,]|(3F>GD (3C<FE D2 D2||

